X:1
T:THIELIN
T:THIELIN
T:TWO STEP
T:EDW. B. CLAYPOOLE
T:Copyright 1904 by Thiebes-Stierlin Music Co.
T:Copyright 1904 by Thiebes-Stierlin Music Co.
T:Copyright 1904 by Thiebes-Stierlin Music Co.
T:Copyright 1904 by Thiebes-Stierlin Music Co.
C:EDW. B. CLAYPOOLE
Z:Copyright 1904 by Thiebes-Stierlin Music Co.
%%score { ( 1 3 ) | ( 2 4 ) }
L:1/8
Q:1/4=100
M:2/4
K:F
V:1 treble nm="Piano" snm="Pno."
V:3 treble 
V:2 bass 
V:4 bass 
V:1
"^Moderato"!mf! a/^g/a/d'/ |"_L H." [fa][fa] [fa][fa] | [dg]/a/[dg]/a/ [dg][B^ce] | %3
 [Ad]!f! z !>!D!>!A, | !>!D z!mf! A/^G/A/d/ | [FA][FA] [FA][FA] | [DG]/A/[DG]/A/ [DG][=B,^CE] | %7
 [A,D]!f! z x2 | x2 [A^cea]2 |: DD/^C/ D/E/F/G/ | A/^G/A/G/ A!<(!F | D2- D/E/D/C/!<)! | !>!A,4 | %13
 DD/^C/ D/E/F/G/ | A/^G/A/G/ [FA][DFB] | c2- c/d/c/A/ | [EG] z!f! !>![^CEGA]2 | DD/^C/ D/E/F/G/ | %18
 A/^G/A/G/ AF |!<(! D2- D/E/D/C/!<)! | !>!A,4 | !>![DFAd] z !>![DGBd] z | %22
 !>![DFAd]!>![DFAd] !>![DFAd]!mf!F/G/ | A/^G/A/B/ A/=G/F/E/ |1 D!>![FAd] !>![FAd] z :|2 %25
 D!<(!f{gf} ef!<)! ||[K:F]!ff! !>![Gg]2 !>![Ff]2 | !>![Ee]2!<(! [Dd]>[Ee] | %28
 !>![FAd]2 !>![EAc]2!<)! | !>![DFA]2- [DFA]!p! d/^d/ | e/b/d z d/^d/ | e/b/d z c/^c/ | %32
 d/a/c z c/^c/ | d/a/c z/ f/e/f/ |!ff! !>![Gg]2 !>![Ff]2 | !>![Ee]2!<(! [Dd]>[Ee] | %36
 !>![FAd]2 !>![EAc]2!<)! | !>![DFA]2- [DFA]!p! d/^d/ | e/b/d z d/^d/ | e/b/d z [ca] | [FAcf]4- | %41
 [FAcf] z!f! !>![A^cea]2 |!mf! dd/^c/ d/e/f/g/ | a/^g/a/g/ a!<(!f | d2- d/e/d/c/!<)! | !>!A4 | %46
 dd/^c/ d/e/f/g/ |!<(! a/^g/a/g/ [fa][dfb]!<)! | ([c-ec'-]2 [cfc']/)[dd']/[cc']/[Bb]/ | %49
 [eg] z!f! !>![^cega]2 |!mf! dd/^c/ d/e/f/g/ | a/^g/a/g/ af | d2- d/e/d/c/ | !>!A4 | %54
 !>![dfad'] z !>![dgbd'] z | !>![dfad']!>![dfad'] !>![dfad']!mf!f/g/ | a/^g/a/b/ a/=g/f/e/ | %57
 dd AB ||[K:Bb]!p!"^TRIO" [DG]/[DG][D^F]/ [DG]2- | [DG]=F/G/ A/B/c/^c/ | [Fd]/[Fd][=E^c]/ [Fd]2- | %61
 [Fd][Fd] [DA][DB] | [DG]/[DG][D^F]/ [DG]2- | [DG]=F/G/ A/B/c/^c/ | [Ae]/[Ae][Bd]/ [Ae]2- | %65
 [Ae][Ae] [A=B][Ac] | [EG]/[EG][E^F]/ [EG][E^G] | [EA]/[EA][E^G]/ [EA][E=F] | %68
!<(! [DB]/[DB][DA]/ [DB][EAc] | [DBd]2-!<)! [DBd]!f! d/=e/ | f !>![FAdf]2 [FAdf] | %71
!<(! !>![FAdf]!>![FAdf] [FAdf] [A,A]/[B,B]/!<)! | !>![Cc]>[Dd] !>![Cc]!>![A,A] | !>![F,F]!mf!d AB | %74
 [DG]/[DG][D^F]/ [DG]2- | [DG]=F/G/ A/B/c/^c/ | [Fd]/[Fd][=E^c]/ [Fd]2- | [Fd][Fd] [DA][DB] | %78
 [F_A]/[FA][=EG]/ [F_A]2- | [FA][_AB] [Ac][Ad] | [Gc]/[Gc][GB]/!<(! G2- | G[Ge][Gd]!<)![Ge] | %82
 [F=B]/[FB][F^A]/ [FB]2- | [FB]^F/G/ A/=B/c/d/ | [G=e]/[Ge][Gd]/ [Ge]2- | [Ge][EG] [E^F][EG] | %86
 [=Ec]/[Ec][Ed]/ [Ec][EG] | [_Ec]/[Ec][Ed]/ [Ec][EF] | [DFB]4- | [DFB] z!f! d'/^c'/d'/g'/ | %90
"_L H." [bd'][bd'] [bd'][bd'] | [gc']/d'/[gc']/d'/ [gc'][e^fa] | [dg]!f! z"_R H." x2 | %93
 x2!mf! d/^c/d/g/ |"_L H." [Bd][Bd] [Bd][Bd] | [Gc]/d/[Gc]/d/ [Gc][E^FA] | [EG]!f! z GD | %97
 !>!G!>!D !>!G z |"_poco" [Acf] !>![Acf]2 [Acf] |!<(! [B_dfg] !>![Bdfg]2 [Bdfg] | %100
 [=Bdf^g] !>![Bdfg]2 [Bdfg]!<)! | [cefa]!>![dd']!ff! !>![Aa]!>![Bb] |!ff! [Gg]/[Gg][^F^f]/ [Gg]2- | %103
 [Gg]=F/G/ A/B/c/^c/ | d/d^c/ d2- | d[dd'] [Aa][Bb] | [Gg]/[Gg][^F^f]/ [Gg]2- | %107
 [Gg]=F/G/ A/B/c/^c/ | e/ed/ e2- | e[ee'] [=B=b][cc'] | [Gg]/[Gg][^F^f]/ [Gg][^G^g] | %111
 [Aa]/[Aa][^G^g]/ [Aa][=F=f] | [Bb]/[Bb][Aa]/ [Bb][cc'] | [dd']3 [dd']/[ee']/ | %114
 [ff'] !>![fad'f']2 [fad'f'] | [fad'f'][fad'f'] [fad'f'] [A,A]/[B,B]/ | %116
 !>![Cc]>[Dd] !>![Cc]!>![A,A] | !>![F,F] [dd'] [Aa][Bb] | [Gg]/[Gg][^F^f]/ [Gg]2- | %119
 [Gg]=F/G/ A/B/c/^c/ | d/d^c/ d2- | d[dd'] [Aa][Bb] | [_A_a]/[Aa][Gg]/ [_A_a]2- | %123
 [Aa][Bb] [cc'][dd'] | [cc']/[cc'][Bb]/ [Gg]2- | [Gg][ee'] [dd'][ee'] | %126
 [=B=b]/[Bb][^A^a]/ [=B=b]2- | [Bb]^F/G/ A/=B/c/d/ | e/ed/ e2- | e[Gg] [^F^f][Gg] | %130
 [c=ec']/[cc'][dd']/ [cec'][Geg] | [c_ec']/[cc'][dd']/ [cec'][Fef] | [Bdfb]4- | [Bdfb]2 || %134
V:2
 z2 | x4 | x4 | x z !>!D,!>!A,, | !>!D, z z2 | DD DD | B,B, B,G, | F, z"^R. H." !>!D,!>!A,, | %8
 !>!D, z [A,,,A,,]2 |: D,[F,A,] D,[F,A,] | D,[F,A,] [F,A,]A,, | D,[F,A,] D,[F,A,] | %12
 z !>![G,,G,]!>![F,,F,]!>![E,,E,] | D,[F,A,] D,[F,A,] | D,[F,A,] D,[=G,,=G,] | E,[G,C] C,[F,A,C] | %16
 [C,G,C] z !>![A,,,A,,]2 | D,[F,A,] D,[F,A,] | D,[F,A,] [F,A,]A,, | D,[F,A,] D,[F,A,] | %20
 z !>![G,,G,]!>![F,,F,]!>![E,,E,] | !>![D,,A,,D,] z !>![D,,G,,D,] z | %22
 !>![D,,A,,D,]!>![D,,A,,D,] !>![D,,A,,D,] z | ^C,[E,G,A,] A,,[G,A,^C] |1 %24
 D,!>![D,,D,] !>![D,,D,] z :|2 D, z z2 ||[K:F] B,,[G,B,] B,,[G,B,] | =B,,[D,G,] =B,,[F,^G,=B,] | %28
 C,[F,A,] A,,[E,A,] | D,[F,A,] [F,A,] z | C,[G,B,E] [G,B,E] z | C,[G,B,E] [G,B,E] z | %32
 [F,,F,][A,CG] [A,CG] z | [F,,F,][A,CG] [A,CG] z | B,,[G,B,] B,,[G,B,] | %35
 =B,,[D,G,] =B,,[F,^G,=B,] | C,[F,A,] A,,[E,A,] | D,[F,A,] [F,A,] z | C,[G,B,E] [G,B,E] z | %39
 C,[G,B,E] [G,B,E] z | [F,,F,]=B,,/C,/- C,/^G,,/A,, | F,, z !>![E,,E,]2 | D,[F,A,D] D,[F,A,D] | %43
 D,[F,A,D] [F,A,D]A,, | D,[F,A,D] D,[F,A,D] | z !>![G,,G,]!>![F,,F,]!>![E,,E,] | %46
 D,[F,A,D] D,[F,A,D] | D,[F,A,D] [F,A,D][=G,D] | E,[G,C] C,[A,C] | [C,G,C] z !>![A,,,A,,]2 | %50
 D,[F,A,D] D,[F,A,D] | D,[F,A,D] [F,A,D]A,, | D,[F,A,D] D,[F,A,D] | %53
 z!8va(! !>![G,G]!>![F,F]!>![E,E]!8va)! | !>![D,A,D] z !>![D,G,D] z | %55
 !>![D,A,D]!>![D,A,D] !>![D,A,D] z | ^C,[G,A,^C] A,,[G,A,C] | [D,F,D] z z2 || %58
[K:Bb] B,,[F,B,] F,,[F,B,] | B,,[D,F,B,] F,,[D,F,B,] | B,,[F,B,] F,,[F,B,] | B,,[F,B,] F,,[F,B,] | %62
 B,,[F,B,] F,,[F,B,] | B,,[F,B,] D,[F,B,] | C,[F,A,C] F,,[F,A,C] | C,[F,A,C] F,,[F,A,C] | %66
 !>![F,,G,]2 !>![C,C]2 | !>![A,,A,]2 !>![F,,F,]2 | B,,[F,B,] [F,B,]F, | %69
 [B,,B,]!>![F,,F,] !>![B,,,B,,] z | z !>!D2 D | DD D [A,,,A,,]/[B,,,B,,]/ | %72
 !>![C,,C,]>[D,,D,] !>![C,,C,]!>![A,,,A,,] | !>![F,,,F,,] z z2 | B,,[F,B,] F,,[F,B,] | %75
 B,,[D,F,B,] F,,[D,F,B,] | B,,[F,B,] F,,[F,B,] | B,,[F,B,] F,,[F,B,] | B,,[F,_A,B,] B,,[F,A,B,] | %79
 B,,[D,F,B,] B,,[F,B,] | E,[B,E] E,[B,E] | E,[B,E] E,[B,E] | !>![G,,G,]2 !>![D,D]2 | %83
 !>![=B,,=B,]2 !>![G,,G,]2 | [C,,C,][G,C] C,[G,C] | [G,C]C CC | C,[G,B,C] C,[G,B,C] | %87
 F,,[F,A,C] F,,[F,A,C] | [B,,B,]=E,/F,/- F,/^C,/D, | B,, z z2 | x4 | x4 | x z !>!G,!>!D, | %93
 !>!G, z z2 | z4 | z4 | x z !>![G,,G,]!>![D,,D,] | !>![G,,G,]!>![D,,D,] !>![G,,G,] z | %98
 [F,,F,] !>![F,,F,]2 [F,,F,] | [F,,F,] !>![F,,F,]2 [F,,F,] | [F,,F,] !>![F,,F,]2 [F,,F,] | %101
 [F,,F,] z z2 | B,,[F,B,D] F,,[F,B,D] | B,,[F,B,D] [F,B,D][F,B,D] | B,,[F,B,D] F,,[F,B,D] | %105
 B,,[F,B,D] [F,A,D][F,B,D] | B,,[F,B,D] F,,[F,B,D] | B,,[F,B,D] [F,B,D][F,B,D] | %108
 C,[F,A,C] F,,[F,A,C] | C,[F,CE] [F,=B,E][F,CE] | E,[A,CE] C,[A,CE] | [A,,A,][A,CE] [F,,F,][A,CE] | %112
 B,,[F,B,D] [F,B,D][F,A,E] | B,,[B,DF] [B,DF] z |[K:treble] z !>![Dd]2 [Dd] | %115
 [Dd][Dd] [Dd][K:bass] [A,,,A,,]/[B,,,B,,]/ | !>![C,,C,]>[D,,D,] !>![C,,C,]!>![A,,,A,,] | %117
 !>![F,,,F,,] z z2 | B,,[F,B,D] F,,[F,B,D] | B,,[F,B,D] [F,B,D][F,B,D] | B,,[F,B,D] F,,[F,B,D] | %121
 B,,[F,B,D] [F,A,D][F,B,D] | B,,[F,B,D] B,,[F,B,D] | B,,[F,_A,B,] [F,A,C][F,A,B,] | %124
 [E,,E,][G,B,E] [E,,E,][G,B,E] | [E,,E,][G,B,E] [E,,E,][G,B,E] | !>![G,,G,]2 !>![D,D]2 | %127
 !>![=B,,=B,]2 !>![G,,G,]2 | C,[G,C] C,[G,C] | C,[CE] [CE][CE] | C,[B,C=E] C,[B,CE] | %131
 [F,,F,][A,C_E] [F,,F,][A,C] | B,=E,/F,/- F,/^C,/D, | B,,2 || %134
V:3
 x2 | dd dd | BB BG | F x3 | x4 | x4 | x4 | x4 | x4 |: x4 | x4 | x4 | x4 | x4 | x4 | E2 F2 | x4 | %17
 x4 | x4 | x4 | x4 | x4 | x4 | x4 |1 x4 :|2 x4 ||[K:F] x4 | x4 | x4 | x4 | x4 | x4 | x4 | x4 | x4 | %35
 x4 | x4 | x4 | x4 | x4 | x4 | x4 | x4 | x4 | x4 | x4 | x4 | x4 | x4 | x4 | x4 | x4 | x4 | x4 | %54
 x4 | x4 | x4 | x4 ||[K:Bb] x4 | x4 | x4 | x4 | x4 | x4 | x4 | x4 | x4 | x4 | x4 | x4 | x4 | x4 | %72
 x4 | x4 | x4 | x4 | x4 | x4 | x4 | x4 | x4 | x4 | x4 | x4 | x4 | x4 | x4 | x4 | x4 | x4 | gg gg | %91
 ee ec | [Bd] x3 | x4 | GG GG | EE EC | B, x3 | x4 | x4 | x4 | x4 | x4 | x4 | x4 | x4 | x4 | x4 | %107
 x4 | x4 | x4 | x4 | x4 | x4 | x4 | x4 | x4 | x4 | x4 | x4 | x4 | x4 | x4 | x4 | x4 | x4 | x4 | %126
 x4 | x4 | x4 | x4 | x4 | x4 | x4 | x2 || %134
V:4
 x2 | x4 | x4 | x4 | x4 | x4 | x4 | x2 !>!D,,!>!A,,, | !>!D,, z x2 |: x4 | x4 | x4 | x4 | x4 | x4 | %15
 x4 | x4 | x4 | x4 | x4 | x4 | x4 | x4 | x4 |1 x4 :|2 x4 ||[K:F] x4 | x4 | x4 | x4 | x4 | x4 | x4 | %33
 x4 | x4 | x4 | x4 | x4 | x4 | x4 | x4 | x4 | x4 | x4 | x4 | x4 | x4 | x4 | x4 | x4 | x4 | x4 | %52
 x4 | x!8va(! x3!8va)! | x4 | x4 | x4 | x4 ||[K:Bb] x4 | x4 | x4 | x4 | x4 | x4 | x4 | x4 | x4 | %67
 x4 | x4 | x4 | x4 | x4 | x4 | x4 | x4 | x4 | x4 | x4 | x4 | x4 | x4 | x4 | x4 | x4 | x4 | x4 | %86
 x4 | x4 | x4 | x4 | x4 | x4 | x2 G,,D,, | G,, x3 | x4 | x4 | x4 | x4 | x4 | x4 | x4 | x4 | x4 | %103
 x4 | x4 | x4 | x4 | x4 | x4 | x4 | x4 | x4 | x4 | x4 |[K:treble] x4 | x3[K:bass] x | x4 | x4 | %118
 x4 | x4 | x4 | x4 | x4 | x4 | x4 | x4 | x4 | x4 | x4 | x4 | x4 | x4 | x4 | x2 || %134

